X: 11268
T: Dusty Windowsills
R: jig
M: 6/8
K: Edorian
|:~E2F GFE|BEE BGE|DED B,DD|A,DD B,DF|
~E2F GFE|BGE Bcd|edB AFD|FED ~E3:|
|:efe edB|AFA ~d3|dec dcB|AFE DB,A,|
B,DD A,DD|B,DF CEG|FdB AFE|FED ~E3:|
|:~E3 dEc|~E3 BGE|~D3 BDA|DED BAF|
~E3 dEc|~E3 Bcd|edB AFD|FED E3:|

